!!!OTL: Heinrich der Loewe.
!!!OTL-incipit: NACH CHRISTI GEBURT EILF HUNDERT VIERZEHN JAHR
!!!ARE: Europa, Mitteleuropa, Deutschland
!!!SCT: Z1005
!!!YEM: Copyright 1995, estate of Helmut Schaffrath.
**kern	**text
*ICvox	*
*M4/4	*
*met(c)	*
*k[]	*
*C:	*
!LO:TX:a:t=Aus der Meiſterſängerʒeit.	!
{4c	Nach
=1	=1
2c	Chri-
4e	-ſti
4g	Ge-
=2	=2
2.g	-burt
4g	eilf
=3	=3
4g	hun-
4d	-dert
4e	vier-
4f#	-ʒehn
=4	=4
2g;}	Jahr,
{4d	Her-
4e	-ʒog
=5	=5
4fn	Hein-
8g	-rich
8g	von
4g	Kö-
4f	-nig
=6	=6
2e	Kon-
4e	-rad
4e	ver-
=7	=7
2e	-trie-
2d	-ben
=8	=8
2c;	war,
4r}	.
{8eL	daß
8f#J	.
=9	=9
4.g	ihm
8g	al-
4g	-lein
4fn	blieb
=10	=10
2f	Braunſchweig
4e	.
4e	die
=11	=11
2d	Stät-
2e	.
=12	=12
2d;	-te.
4r}	.
{4c	Nach-
=13	=13
2c	-dem
4e	ʒog
4g	er
=14	=14
2.g	aus
4g	mit_dem
=15	=15
4g	Adel
4d	ʒum
4e	heil'-
4f#	-gen
=16	=16
2g;}	Land,
{4d	ſei-
4e	-nem
=17	=17
4fn	Weib
8g	ʒu-
8g	-letʒt
4g	er
4f	ein
=18	=18
2e	halb
4e	gül-
4e	-den
=19	=19
2e	Ring-
2d	-lein
=20	=20
2c;	gab,
4r}	.
{8eL	das
8f#J	.
=21	=21
4.g	an-
8g	-dre
4g	halb
4fn	er
=22	=22
2f	be-
4e	-hal-
4e	-ten
=23	=23
2d	hät-
2e	.
=24	=24
2d;	-te!
4r}	.
{4c	Jns
=25	=25
4e	wei-
4e	-te
4f	Meer
4g	that
=26	=26
4a	ſich
4g	das
4f	Schiff
4e	ein-
=27	=27
(2d	-hef-
2e)	.
=28	=28
2f;	-ten.
4r}	.
{4e	Ein
=29	=29
4e	Greif
4e	her
4f	in
4e	den
=30	=30
2d	Lüf-
2d	-ten
=31	=31
2.c;}	flug
{4c	und
=32	=32
4e	ʒug
4e	ein
4f	Mann
8gL	aus
8aJ	.
=33	=33
4g	ſei-
4f	-nem
4e	Schiff
8dL	mit
8eJ	.
=34	=34
(2f#	Kräf-
2g)	.
=35	=35
2g;	-ten;
4r}	.
{4g	bald
=36	=36
4g	ließ
4g	der
4f	Fürſt
8eL	ſich
8f#J	.
=37	=37
(4g	nä-
4fn)	.
(4e	-hen
4d)	.
=38	=38
2e}	ein
{4e	in
4e	ein
=39	=39
4e	Roß-
4f	-haut
4g	mit
4a	ſein
=40	=40
2g	ſtäh-
4f	-lern
4e	Ge-
=41	=41
(2f#	-wan-
2g)	.
=42	=42
2g;}	-de,
{4g	ʒu
4g	er-
=43	=43
2g	-ret-
4g	-ten
4e	das
=44	=44
(4f	Le-
4g	.
4f)	.
8eL	-ben
8fJ	.
=45	=45
2.e;}	ſein.
{4e	Der
=46	=46
4e	Greif
4e	kam
4f	wie-
4g	-der,
=47	=47
4a	führt
4g	ihn
4f	auf
4e	ʒu
=48	=48
1f	Lan-
=49	=49
2g;}	-de
{4g	auf
4g	ein
=50	=50
2g	Hoch-
(4g	-ge-
4e)	.
=51	=51
2f	-birg
4g	in
4f	ſein
=52	=52
(2e	Neſt,
2f	.
=53	=53
2.e;)}	.
{4e	ʒu
=54	=54
(4d	Speiß
4e)	.
4f	ſei-
4g	-nen
=55	=55
2f	Jun-
2e	-gen
=56	=56
1e;	nie-
=57	=57
2e}	-der.
{(4d	Der
4c)	.
=58	=58
4c	al-
4c	-te
4c	Greif
8e	von
8e	dem
=59	=59
4d	Ne-
8eL	-ſte
8f#J	.
4g;	flog,
4c	der
=60	=60
2c	Fürſt
8cL	aus-
8BJ	.
8c	-ʒog
8G	ſein
=61	=61
(4G	Schwert,
4c)	.
4r}	.
{4c	die
=62	=62
4e	Jun-
4c	-gen
4e	ſchlug
8f#	er
8f#	ʒu
=63	=63
2g;	Tod,
4r}	.
{8eL	ſtieg
8dJ	.
=64	=64
(8eL	ei-
8fJ)	.
4g	-lend
4f	von
4f	dem
=65	=65
4e	Fel-
4e	-ſen
(4e	nie-
8dL	.
8eJ)	.
=66	=66
2d;	-der.
4r}	.
==	==
!!!AGN: Romanze, Ballade
!!!ONB: ESAC (Essen Associative Code) Database: ZUCCAL
!!!AMT: simple quadruple
!!!AIN: vox
!!!EED: Helmut Schaffrath
!!!EEV: 1.0
!!!GTL: I. Volks- Leuschen.
!!!URL-scan: https://www.digitale-sammlungen.de/de/view/bsb11160573?page=23
!!!ENC: Anna Maria Matuszewska
!!!EEV: 2025/01/31
*-	*-
